X:1
T:Title
%%score { ( 1 3 ) | ( 2 4 ) }
L:1/8
M:4/4
K:Bb
V:1 treble nm="Grand Piano"
V:3 treble 
V:2 bass 
V:4 bass 
V:1
 z4 z2[Q:1/4=100] [DF]2 | [DB]2 [EG][EG] [DF]2 GG | B2 cc [DB]3 [DF] | G B2 G [DF][DF] [FB]2 | %4
 [Fc]6 [EF]2 | [DB]2 [EG][EG] [DF]2 GG | B2 cc [DB]3 [DF] | A A2 A [=EB][EB] [EG]2 |[M:3/4] [Ec]6 | %9
[M:1/4] [EF]2 |[M:4/4] [DB][DB] [Ec]2 [DB]3 [EG] | [DF][DF] [EG]2 [DF]3 [B,D] | %12
 [DF] [DB]2 [EG] [DF][DF] [FB]2 | c6 z2 | [DB][DB] [Ec]2 [DB]3 [B,DF] | %15
[M:9/8] z2 [Gc]- [Gc] z z z3 |[M:17/16] dB-<BGFc>d-d3/2 |[M:9/8] [DB]8- [DB] |] %18
V:2
 z4 z2 [B,,B,]2 | [B,,F,]2 [B,,B,][B,,B,] [B,,B,]2 [E,B,E][E,B,E] | %2
 [F,B,D]2 [F,A,E][F,A,E] [B,,B,]3 [B,,B,] | [E,B,E] [E,G,E]2 [E,B,E] [B,,B,][B,,B,] [D,B,]2 | %4
 [F,A,]6 [F,A,]2 | [B,,F,]2 [B,,B,][B,,B,] [B,,B,]2 [E,B,E][E,B,E] | %6
 [F,B,D]2 [F,A,E][F,A,E] [B,,B,]3 [B,,B,] | [C,F,C] [C,F,C]2 [C,F,C] [C,G,][C,G,] [C,B,]2 | %8
[M:3/4] [F,A,]6 |[M:1/4] [F,A,]2 |[M:4/4] [B,,F,][B,,F,] [A,,F,]2 [B,,F,]3 [B,,B,] | %11
 [B,,B,][B,,B,] [E,B,]2 [B,,B,]3 [B,,F,] | [B,,B,] [B,,F,]2 [B,,B,] [B,,B,][B,,B,] [D,B,]2 | %13
 [F,A,F]2 [G,B,]2 [A,C]2 [F,A,E]2 | [B,,F,][B,,F,] [A,,F,]2 [B,,F,]3 B,, | %15
[M:9/8] E, .E,2 G, [D,A,]2- [D,A,] [C,C]2 | %16
[M:17/16] [F,B,F][F,DF]-<[F,DF][F,B,E][F,A,E][F,A,E]>[F,A,F]-[F,A,F]3/2 | %17
[M:9/8] [B,,F,]8- [B,,F,] |] %18
V:3
 x8 | x8 | x8 | x8 | x8 | x8 | x8 | x8 |[M:3/4] x6 |[M:1/4] x2 |[M:4/4] x8 | x8 | x8 | %13
 z2 =E2 _E2 F2 | x8 |[M:9/8] [B,EG][EGB]E z [^Fd]2- [Fd] [Ge]2 |[M:17/16] x17/2 |[M:9/8] x9 |] %18
V:4
 x8 | x8 | x8 | x8 | x8 | x8 | x8 | x8 |[M:3/4] x6 |[M:1/4] x2 |[M:4/4] x8 | x8 | x8 | x8 | x8 | %15
[M:9/8] z2 E,- E, z z z3 |[M:17/16] x17/2 |[M:9/8] x9 |] %18

